app/dist/common/images/founder-securities.svg

<svg height="18" viewBox="0 0 18 18" width="18" xmlns="http://www.w3.org/2000/svg"><path d="m0 0h18v18h-18z" fill="#f0f3fa"/><path d="m14 9.79v-5.79h-5.73l-2.27 2h6v6h-6v-6l-2 2.21v5.79h5.73l2.27-2z" fill="#dc0e21"/></svg>

<!-- by TradingView --><svg width="18" height="18" viewBox="0 0 18 18" xmlns="http://www.w3.org/2000/svg"><path fill="#F0F3FA" d="M0 0h18v18H0z"/><path d="M14 9.79V4H8.27L6 6h6v6H6V6L4 8.21V14h5.73L12 12l2-2.21Z" fill="#DC0E21"/></svg>
